src/assets/images/github-square.svg

<?xml version="1.0" encoding="iso-8859-1"?>
<!-- Generator: Adobe Illustrator 16.0.0, SVG Export Plug-In . SVG Version: 6.00 Build 0)  -->
<!DOCTYPE svg PUBLIC "-//W3C//DTD SVG 1.1//EN" "http://www.w3.org/Graphics/SVG/1.1/DTD/svg11.dtd">
<svg version="1.1" id="Capa_1" xmlns="http://www.w3.org/2000/svg" xmlns:xlink="http://www.w3.org/1999/xlink" x="0px" y="0px"
	 width="438.536px" height="438.536px" viewBox="0 0 438.536 438.536" style="enable-background:new 0 0 438.536 438.536;"
	 xml:space="preserve">
<g>
	<g>
		<path style="fill:#ffffff;" d="M158.173,352.599c-3.049,0.568-4.381,1.999-3.999,4.281c0.38,2.283,2.093,3.046,5.138,2.283
			c3.049-0.76,4.38-2.095,3.997-3.997C162.931,353.074,161.218,352.216,158.173,352.599z"/>
		<path style="fill:#ffffff;" d="M141.898,354.885c-3.046,0-4.568,1.041-4.568,3.139c0,2.474,1.619,3.518,4.853,3.138c3.046,0,4.57-1.047,4.57-3.138
			C146.753,355.553,145.134,354.502,141.898,354.885z"/>
		<path style="fill:#ffffff;" d="M119.629,354.022c-0.76,2.095,0.478,3.519,3.711,4.284c2.855,1.137,4.664,0.568,5.424-1.714
			c0.572-2.091-0.666-3.61-3.711-4.568C122.197,351.265,120.39,351.922,119.629,354.022z"/>
		<path style="fill:#ffffff;" d="M414.41,24.123C398.326,8.042,378.964,0,356.309,0H82.225C59.577,0,40.208,8.042,24.123,24.123
			C8.042,40.207,0,59.576,0,82.225v274.088c0,22.65,8.042,42.017,24.123,58.098c16.084,16.084,35.454,24.126,58.102,24.126h63.953
			c4.184,0,7.327-0.144,9.42-0.424c2.092-0.288,4.184-1.526,6.279-3.717c2.096-2.187,3.14-5.376,3.14-9.562
			c0-0.568-0.05-7.046-0.144-19.417c-0.097-12.375-0.144-22.176-0.144-29.41l-6.567,1.143c-4.187,0.76-9.469,1.095-15.846,0.999
			c-6.374-0.096-12.99-0.76-19.841-1.998c-6.855-1.239-13.229-4.093-19.13-8.562c-5.898-4.477-10.085-10.328-12.56-17.559
			l-2.856-6.571c-1.903-4.373-4.899-9.229-8.992-14.554c-4.093-5.332-8.232-8.949-12.419-10.852l-1.999-1.428
			c-1.331-0.951-2.568-2.098-3.711-3.429c-1.141-1.335-1.997-2.669-2.568-3.997c-0.571-1.335-0.097-2.43,1.427-3.289
			c1.524-0.855,4.281-1.279,8.28-1.279l5.708,0.855c3.808,0.76,8.516,3.042,14.134,6.851c5.614,3.806,10.229,8.754,13.846,14.843
			c4.38,7.806,9.657,13.75,15.846,17.843c6.184,4.097,12.419,6.143,18.699,6.143s11.704-0.476,16.274-1.424
			c4.565-0.954,8.848-2.385,12.847-4.288c1.713-12.751,6.377-22.559,13.988-29.41c-10.848-1.143-20.602-2.854-29.265-5.14
			c-8.658-2.286-17.605-5.995-26.835-11.136c-9.234-5.14-16.894-11.512-22.985-19.13c-6.09-7.618-11.088-17.61-14.987-29.978
			c-3.901-12.375-5.852-26.652-5.852-42.829c0-23.029,7.521-42.637,22.557-58.814c-7.044-17.32-6.379-36.732,1.997-58.242
			c5.52-1.714,13.706-0.428,24.554,3.855c10.85,4.286,18.794,7.951,23.84,10.992c5.046,3.042,9.089,5.614,12.135,7.71
			c17.705-4.949,35.976-7.423,54.818-7.423c18.841,0,37.115,2.474,54.821,7.423l10.849-6.852c7.426-4.57,16.18-8.757,26.269-12.562
			c10.088-3.806,17.795-4.854,23.127-3.14c8.562,21.51,9.328,40.922,2.279,58.241c15.036,16.179,22.559,35.786,22.559,58.815
			c0,16.18-1.951,30.505-5.852,42.969c-3.898,12.467-8.939,22.463-15.13,29.981c-6.184,7.519-13.894,13.843-23.124,18.986
			c-9.232,5.137-18.178,8.853-26.84,11.132c-8.661,2.286-18.414,4.004-29.263,5.147c9.891,8.562,14.839,22.072,14.839,40.538v68.238
			c0,3.237,0.472,5.852,1.424,7.851c0.958,1.998,2.478,3.374,4.571,4.141c2.102,0.76,3.949,1.235,5.571,1.424
			c1.622,0.191,3.949,0.287,6.995,0.287h63.953c22.648,0,42.018-8.042,58.095-24.126c16.084-16.084,24.126-35.454,24.126-58.102
			V82.225C438.533,59.576,430.491,40.204,414.41,24.123z"/>
		<path d="M86.793,319.195c-1.331,0.948-1.141,2.471,0.572,4.565c1.906,1.902,3.427,2.189,4.57,0.855
			c1.331-0.948,1.141-2.471-0.575-4.569C89.458,318.336,87.936,318.049,86.793,319.195z"/>
		<path d="M77.374,312.057c-0.57,1.335,0.096,2.478,1.999,3.426c1.521,0.955,2.762,0.767,3.711-0.568
			c0.57-1.335-0.096-2.478-1.999-3.433C79.182,310.91,77.945,311.102,77.374,312.057z"/>
		<path d="M95.646,330.331c-1.715,0.948-1.715,2.666,0,5.137c1.713,2.478,3.328,3.142,4.853,1.998c1.714-1.334,1.714-3.142,0-5.427
			C98.978,329.571,97.359,328.993,95.646,330.331z"/>
		<path d="M105.641,343.174c-1.714,1.526-1.336,3.327,1.142,5.428c2.281,2.279,4.185,2.566,5.708,0.849
			c1.524-1.519,1.143-3.326-1.142-5.42C109.068,341.751,107.164,341.463,105.641,343.174z"/>
	</g>
</g>
<g>
</g>
<g>
</g>
<g>
</g>
<g>
</g>
<g>
</g>
<g>
</g>
<g>
</g>
<g>
</g>
<g>
</g>
<g>
</g>
<g>
</g>
<g>
</g>
<g>
</g>
<g>
</g>
<g>
</g>
</svg>

<svg width="439px" height="439px" viewBox="0 0 439 439" version="1.1" xmlns="http://www.w3.org/2000/svg" xmlns:xlink="http://www.w3.org/1999/xlink">
    <!-- Generator: Sketch 43.1 (39012) - http://www.bohemiancoding.com/sketch -->
    <desc>Created with Sketch.</desc>
    <defs></defs>
    <g id="Welcome" stroke="none" stroke-width="1" fill="none" fill-rule="evenodd">
        <g id="Artboard-2" transform="translate(-316.000000, -525.000000)" fill-rule="nonzero">
            <g id="github-square" transform="translate(316.000000, 525.000000)">
                <path d="M158.173,352.599 C155.124,353.167 153.792,354.598 154.174,356.88 C154.554,359.163 156.267,359.926 159.312,359.163 C162.361,358.403 163.692,357.068 163.309,355.166 C162.931,353.074 161.218,352.216 158.173,352.599 Z" id="Shape" fill="#FFFFFF"></path>
                <path d="M141.898,354.885 C138.852,354.885 137.33,355.926 137.33,358.024 C137.33,360.498 138.949,361.542 142.183,361.162 C145.229,361.162 146.753,360.115 146.753,358.024 C146.753,355.553 145.134,354.502 141.898,354.885 Z" id="Shape" fill="#FFFFFF"></path>
                <path d="M119.629,354.022 C118.869,356.117 120.107,357.541 123.34,358.306 C126.195,359.443 128.004,358.874 128.764,356.592 C129.336,354.501 128.098,352.982 125.053,352.024 C122.197,351.265 120.39,351.922 119.629,354.022 Z" id="Shape" fill="#FFFFFF"></path>
                <path d="M414.41,24.123 C398.326,8.042 378.964,0 356.309,0 L82.225,0 C59.577,0 40.208,8.042 24.123,24.123 C8.042,40.207 0,59.576 0,82.225 L0,356.313 C0,378.963 8.042,398.33 24.123,414.411 C40.207,430.495 59.577,438.537 82.225,438.537 L146.178,438.537 C150.362,438.537 153.505,438.393 155.598,438.113 C157.69,437.825 159.782,436.587 161.877,434.396 C163.973,432.209 165.017,429.02 165.017,424.834 C165.017,424.266 164.967,417.788 164.873,405.417 C164.776,393.042 164.729,383.241 164.729,376.007 L158.162,377.15 C153.975,377.91 148.693,378.245 142.316,378.149 C135.942,378.053 129.326,377.389 122.475,376.151 C115.62,374.912 109.246,372.058 103.345,367.589 C97.447,363.112 93.26,357.261 90.785,350.03 L87.929,343.459 C86.026,339.086 83.03,334.23 78.937,328.905 C74.844,323.573 70.705,319.956 66.518,318.053 L64.519,316.625 C63.188,315.674 61.951,314.527 60.808,313.196 C59.667,311.861 58.811,310.527 58.24,309.199 C57.669,307.864 58.143,306.769 59.667,305.91 C61.191,305.055 63.948,304.631 67.947,304.631 L73.655,305.486 C77.463,306.246 82.171,308.528 87.789,312.337 C93.403,316.143 98.018,321.091 101.635,327.18 C106.015,334.986 111.292,340.93 117.481,345.023 C123.665,349.12 129.9,351.166 136.18,351.166 C142.46,351.166 147.884,350.69 152.454,349.742 C157.019,348.788 161.302,347.357 165.301,345.454 C167.014,332.703 171.678,322.895 179.289,316.044 C168.441,314.901 158.687,313.19 150.024,310.904 C141.366,308.618 132.419,304.909 123.189,299.768 C113.955,294.628 106.295,288.256 100.204,280.638 C94.114,273.02 89.116,263.028 85.217,250.66 C81.316,238.285 79.365,224.008 79.365,207.831 C79.365,184.802 86.886,165.194 101.922,149.017 C94.878,131.697 95.543,112.285 103.919,90.775 C109.439,89.061 117.625,90.347 128.473,94.63 C139.323,98.916 147.267,102.581 152.313,105.622 C157.359,108.664 161.402,111.236 164.448,113.332 C182.153,108.383 200.424,105.909 219.266,105.909 C238.107,105.909 256.381,108.383 274.087,113.332 L284.936,106.48 C292.362,101.91 301.116,97.723 311.205,93.918 C321.293,90.112 329,89.064 334.332,90.778 C342.894,112.288 343.66,131.7 336.611,149.019 C351.647,165.198 359.17,184.805 359.17,207.834 C359.17,224.014 357.219,238.339 353.318,250.803 C349.42,263.27 344.379,273.266 338.188,280.784 C332.004,288.303 324.294,294.627 315.064,299.77 C305.832,304.907 296.886,308.623 288.224,310.902 C279.563,313.188 269.81,314.906 258.961,316.049 C268.852,324.611 273.8,338.121 273.8,356.587 L273.8,424.825 C273.8,428.062 274.272,430.677 275.224,432.676 C276.182,434.674 277.702,436.05 279.795,436.817 C281.897,437.577 283.744,438.052 285.366,438.241 C286.988,438.432 289.315,438.528 292.361,438.528 L356.314,438.528 C378.962,438.528 398.332,430.486 414.409,414.402 C430.493,398.318 438.535,378.948 438.535,356.3 L438.535,82.225 C438.533,59.576 430.491,40.204 414.41,24.123 Z" id="Shape" fill="#FFFFFF"></path>
                <path d="M86.793,319.195 C85.462,320.143 85.652,321.666 87.365,323.76 C89.271,325.662 90.792,325.949 91.935,324.615 C93.266,323.667 93.076,322.144 91.36,320.046 C89.458,318.336 87.936,318.049 86.793,319.195 Z" id="Shape" fill="#000000"></path>
                <path d="M77.374,312.057 C76.804,313.392 77.47,314.535 79.373,315.483 C80.894,316.438 82.135,316.25 83.084,314.915 C83.654,313.58 82.988,312.437 81.085,311.482 C79.182,310.91 77.945,311.102 77.374,312.057 Z" id="Shape" fill="#000000"></path>
                <path d="M95.646,330.331 C93.931,331.279 93.931,332.997 95.646,335.468 C97.359,337.946 98.974,338.61 100.499,337.466 C102.213,336.132 102.213,334.324 100.499,332.039 C98.978,329.571 97.359,328.993 95.646,330.331 Z" id="Shape" fill="#000000"></path>
                <path d="M105.641,343.174 C103.927,344.7 104.305,346.501 106.783,348.602 C109.064,350.881 110.968,351.168 112.491,349.451 C114.015,347.932 113.634,346.125 111.349,344.031 C109.068,341.751 107.164,341.463 105.641,343.174 Z" id="Shape" fill="#000000"></path>
            </g>
        </g>
    </g>
</svg>
